X: 24124
T: Longford Collector, The
R: reel
M: 4/4
K: Gmajor
|:G3A Bd~d2|eB~B2 dBAB|GFGA BGdB|AdBA GEDE|
G3A Bd~d2|eB~B2 d2ef|gbaf gedB|1 AdBA GEDE:|2 AdBA GABd||
|:g3a gedg|eB~B2 d2ef|gbaf gedB|AdBA GABd|
g2fa gedg|eB~B2 d2ef|gbaf gedB|1 AdBA GED2:|2 AdBA GEDE||

